X: 9720
T: Deep Waters
R: hornpipe
M: 4/4
K: Gmajor
B>c|:d>B d>B g>f g>e|d>B d>B G2 B>c|d>d d>d e>d c>B|B2 A2 A2 B>c|
d>B d>B g>f g>e|d>B d>B G2 B>c|d>g f>g e>c A>F|1 G2 G2 G2 B>c:|2 G2 G2 G2 f>g||
|:a>b a>f d2 d>c|B>c d>e d2 f>g|a>b a>f d2 d>c|B>c d>e d2 g>e|
d>B g>e d>B g>e|d>B d>B G2 B>c|d>g f>g e>c A>F|1 G2 G2 G2 f>g:|2 G2 G2 G2||

